icons/media/go-forward-10-24.svg

<svg width="24" height="24" viewBox="0 0 24 24" fill="none" xmlns="http://www.w3.org/2000/svg">
<path d="M11.1935 0.6452C10.9656 0.478064 10.6631 0.453244 10.411 0.580996C10.1589 0.708748 10 0.967376 10 1.25V3.20004C5.43552 4.12658 2 8.16208 2 13C2 18.5228 6.47715 23 12 23C17.5228 23 22 18.5228 22 13C22 10.2388 20.8799 7.73776 19.0711 5.92893C18.7782 5.63604 18.3033 5.63604 18.0104 5.92893C17.7175 6.22183 17.7175 6.6967 18.0104 6.98959C19.5494 8.52861 20.5 10.6526 20.5 13C20.5 17.6944 16.6944 21.5 12 21.5C7.30558 21.5 3.5 17.6944 3.5 13C3.5 8.99446 6.27063 5.63603 10 4.73663V6.75C10 7.03263 10.1589 7.29126 10.411 7.41901C10.6631 7.54676 10.9656 7.52194 11.1935 7.35481L14.9435 4.60481C15.1362 4.46353 15.25 4.23891 15.25 4C15.25 3.7611 15.1362 3.53648 14.9435 3.3952L11.1935 0.6452Z" fill="black"/>
<path d="M9.75001 9.75C9.75001 9.48426 9.60939 9.23836 9.38036 9.1036C9.15133 8.96883 8.86808 8.96533 8.63578 9.09438L6.38578 10.3444C6.02369 10.5455 5.89324 11.0021 6.0944 11.3642C6.29556 11.7263 6.75216 11.8568 7.11425 11.6556L8.25001 11.0246V17.25C8.25001 17.6642 8.5858 18 9.00001 18C9.41423 18 9.75001 17.6642 9.75001 17.25V9.75Z" fill="black"/>
<path fill-rule="evenodd" clip-rule="evenodd" d="M17.5 13.5C17.5 15.9853 16.4069 18 14.25 18C12.0932 18 11 15.9853 11 13.5C11 11.0147 12.0932 9 14.25 9C16.4069 9 17.5 11.0147 17.5 13.5ZM16 13.5C16 14.5505 15.7649 15.3562 15.4358 15.8499C15.1455 16.2854 14.7825 16.5 14.25 16.5C13.7176 16.5 13.3546 16.2854 13.0643 15.8499C12.7351 15.3562 12.5 14.5505 12.5 13.5C12.5 12.4495 12.7351 11.6438 13.0643 11.1501C13.3546 10.7146 13.7176 10.5 14.25 10.5C14.7825 10.5 15.1455 10.7146 15.4358 11.1501C15.7649 11.6438 16 12.4495 16 13.5Z" fill="black"/>
</svg>

<svg xmlns="http://www.w3.org/2000/svg" width="24" height="24"><path d="M11.194.645A.75.75 0 0010 1.25V3.2c-4.564.927-8 4.962-8 9.8 0 5.523 4.477 10 10 10s10-4.477 10-10a9.971 9.971 0 00-2.929-7.071.75.75 0 00-1.06 1.06A8.5 8.5 0 1110 4.737V6.75a.75.75 0 001.193.605l3.75-2.75a.75.75 0 000-1.21l-3.75-2.75z"/><path d="M9.75 9.75a.75.75 0 00-1.114-.656l-2.25 1.25a.75.75 0 10.728 1.312l1.136-.631v6.225a.75.75 0 001.5 0v-7.5z"/><path fill-rule="evenodd" d="M17.5 13.5c0 2.485-1.093 4.5-3.25 4.5S11 15.985 11 13.5 12.093 9 14.25 9s3.25 2.015 3.25 4.5zm-1.5 0c0 1.05-.235 1.856-.564 2.35-.29.435-.653.65-1.186.65-.532 0-.895-.215-1.186-.65-.329-.494-.564-1.3-.564-2.35s.235-1.856.564-2.35c.29-.435.654-.65 1.186-.65.533 0 .896.215 1.186.65.329.494.564 1.3.564 2.35z"/></svg>
